img/pepper.svg

<svg width="35" height="41" viewBox="0 0 35 41" fill="none" xmlns="http://www.w3.org/2000/svg">
<path d="M2.73174 26.0324C3.05674 27.0001 3.30369 27.6985 3.50084 28.2503C4.11055 29.8655 4.5215 31.5477 4.7248 33.2603C5.52282 38.0058 6.18359 40.4829 11.4441 40.4829C12.6695 40.5691 13.896 40.3291 14.9962 39.7878C16.5381 40.7124 18.4704 40.7147 20.0145 39.7938C21.1124 40.3303 22.3346 40.5681 23.5558 40.4829C28.8164 40.4829 29.4771 38.0071 30.2752 33.2623C30.4784 31.5494 30.8893 29.8671 31.4991 28.2516C31.6963 27.6971 31.9432 27.0014 32.2682 26.0338C32.6575 24.8879 33.1219 23.7684 33.6584 22.6824C34.5939 20.9924 35.0554 19.085 34.9947 17.1586C34.9278 12.4017 31.0504 8.56153 26.2473 8.49524C24.3825 8.39335 22.5321 8.87148 20.9552 9.86271C20.5195 9.4955 20.0364 9.18736 19.5186 8.9464V6.29609C19.5186 5.29647 19.8295 4.66205 20.4404 4.40415C20.7734 4.26527 21.0327 3.99494 21.1557 3.65844C21.285 3.3101 21.2636 2.92438 21.0965 2.59219L20.4068 1.23138C20.0674 0.583255 19.2705 0.318017 18.6048 0.631614C15.4814 2.14103 15.4814 4.32485 15.4814 5.62968V8.93773C14.9582 9.1766 14.47 9.48438 14.03 9.85271C12.4558 8.86849 10.6114 8.39404 8.75262 8.49524C3.94958 8.56153 0.0721893 12.4017 0.0052572 17.1586C-0.0551702 19.0845 0.406253 20.9914 1.34159 22.6811C1.87809 23.7671 2.34246 24.8866 2.73174 26.0324ZM16.8271 5.62968C16.8271 4.4468 16.8271 2.97404 19.2057 1.83115L19.9149 3.1773C19.2643 3.45119 18.1729 4.22089 18.1729 6.29609V8.54455C17.9501 8.51177 17.7252 8.49529 17.5 8.49524C17.2747 8.49718 17.0498 8.51522 16.8271 8.54922V5.62968ZM8.75262 9.82805C10.2492 9.74969 11.7378 10.0908 13.0476 10.8123C12.0151 12.0355 11.1964 13.4209 10.6252 14.9114C10.487 15.2533 10.6548 15.6415 11 15.7784C11.3453 15.9153 11.7372 15.7491 11.8754 15.4072C13.306 11.8613 15.3562 9.82805 17.5 9.82805C20.3738 9.82805 23.099 13.6266 24.2812 19.2844C24.3451 19.5945 24.6204 19.8173 24.9399 19.8175C24.9852 19.8172 25.0302 19.8126 25.0745 19.8035C25.4383 19.7288 25.672 19.3761 25.5967 19.0158C24.8565 15.4879 23.5585 12.655 21.9396 10.819C23.2521 10.092 24.7457 9.7484 26.2473 9.82805C30.3114 9.88431 33.5922 13.1336 33.649 17.1586C33.7035 18.8879 33.2851 20.5996 32.4378 22.1126C31.8791 23.2466 31.3952 24.4153 30.9891 25.6113C30.6661 26.5696 30.4212 27.2586 30.226 27.8104C29.5902 29.4982 29.161 31.2554 28.9476 33.0444C28.1677 37.6839 27.7223 39.15 23.5558 39.15C22.784 39.1759 22.0127 39.086 21.2681 38.8835C22.3016 37.8982 23.1452 36.7348 23.7577 35.4501C23.9234 35.1206 23.788 34.7203 23.4552 34.5561C23.1225 34.392 22.7183 34.5261 22.5526 34.8557C21.1584 37.6233 19.3645 39.15 17.5 39.15C15.1146 39.15 12.7804 36.5191 11.4078 32.286C11.278 31.9584 10.9133 31.7872 10.5751 31.8951C10.2368 32.003 10.0416 32.3528 10.1293 32.6939C10.784 35.0274 12.028 37.1573 13.744 38.8828C12.9955 39.0872 12.22 39.1773 11.4441 39.15C7.27768 39.15 6.83224 37.6839 6.0517 33.0424C5.83824 31.2536 5.40903 29.4967 4.77324 27.8091C4.57811 27.26 4.33318 26.5709 4.0102 25.6099C3.60425 24.4144 3.12056 23.2462 2.56218 22.1126C1.71491 20.5996 1.29642 18.8879 1.35101 17.1586C1.4078 13.1336 4.68858 9.88431 8.75262 9.82805Z" fill="#FF7010"/>
</svg>

<svg width="35" height="41" fill="none" xmlns="http://www.w3.org/2000/svg"><path d="M2.732 26.032c.325.968.572 1.666.769 2.218a21.293 21.293 0 0 1 1.224 5.01c.798 4.746 1.459 7.223 6.72 7.223a6.945 6.945 0 0 0 3.551-.695 4.895 4.895 0 0 0 5.019.006 6.964 6.964 0 0 0 3.54.689c5.261 0 5.922-2.476 6.72-7.22a21.29 21.29 0 0 1 1.224-5.011c.197-.555.444-1.25.77-2.218.389-1.146.853-2.266 1.39-3.352a10.707 10.707 0 0 0 1.336-5.523c-.067-4.757-3.945-8.597-8.748-8.664a9.022 9.022 0 0 0-5.292 1.368 6.455 6.455 0 0 0-1.436-.917v-2.65c0-1 .31-1.634.921-1.892.333-.139.593-.41.716-.746.129-.348.108-.734-.06-1.066l-.69-1.36a1.374 1.374 0 0 0-1.801-.6C15.48 2.14 15.48 4.325 15.48 5.63v3.308a6.405 6.405 0 0 0-1.451.915 9.031 9.031 0 0 0-5.277-1.358C3.95 8.562.073 12.402.005 17.16a10.707 10.707 0 0 0 1.337 5.522c.536 1.086 1 2.206 1.39 3.351ZM16.827 5.63c0-1.183 0-2.656 2.379-3.799l.709 1.346c-.65.274-1.742 1.044-1.742 3.12v2.248a4.63 4.63 0 0 0-.673-.05c-.225.002-.45.02-.673.054V5.63ZM8.753 9.828a8.033 8.033 0 0 1 4.295.984 14.275 14.275 0 0 0-2.423 4.1c-.138.341.03.73.375.866a.676.676 0 0 0 .875-.37c1.431-3.547 3.481-5.58 5.625-5.58 2.874 0 5.599 3.799 6.781 9.456a.671.671 0 0 0 1.316-.268c-.74-3.528-2.039-6.361-3.657-8.197a8.016 8.016 0 0 1 4.307-.991c4.064.056 7.345 3.306 7.402 7.33a9.523 9.523 0 0 1-1.211 4.955 29.05 29.05 0 0 0-1.449 3.498c-.323.959-.568 1.648-.763 2.2a22.36 22.36 0 0 0-1.278 5.233c-.78 4.64-1.226 6.106-5.392 6.106a7.73 7.73 0 0 1-2.288-.267 11.703 11.703 0 0 0 2.49-3.433.664.664 0 0 0-.303-.894.676.676 0 0 0-.902.3c-1.395 2.767-3.189 4.294-5.053 4.294-2.385 0-4.72-2.63-6.092-6.864a.675.675 0 0 0-.833-.39.665.665 0 0 0-.446.798 14.23 14.23 0 0 0 3.615 6.189 7.703 7.703 0 0 1-2.3.267c-4.166 0-4.612-1.466-5.392-6.108a22.357 22.357 0 0 0-1.279-5.233c-.195-.549-.44-1.238-.763-2.2a29.061 29.061 0 0 0-1.448-3.496 9.522 9.522 0 0 1-1.211-4.954c.057-4.025 3.338-7.275 7.402-7.33Z" fill="#FF7010"/></svg>
